apps/trade/public/tokens/wbtc.svg

<svg width="24" height="24" viewBox="0 0 24 24" fill="none" xmlns="http://www.w3.org/2000/svg">
<g clip-path="url(#clip0_10046_62081)">
<rect width="24" height="24.0001" rx="12" fill="#282138"/>
<path d="M19.5743 5.03668L18.9153 5.69566C20.4878 7.41523 21.3598 9.66099 21.3598 11.9911C21.3598 14.3212 20.4878 16.567 18.9153 18.2866L19.5743 18.9455C21.323 17.0487 22.2939 14.5633 22.2939 11.9834C22.2939 9.40353 21.323 6.91811 19.5743 5.0213V5.03668Z" fill="#5A5564"/>
<path d="M5.71598 5.09377C7.43554 3.52134 9.68131 2.64934 12.0114 2.64934C14.3415 2.64934 16.5873 3.52134 18.3069 5.09377L18.9658 4.43479C17.069 2.68608 14.5836 1.71521 12.0037 1.71521C9.42384 1.71521 6.93843 2.68608 5.04163 4.43479L5.71598 5.09377Z" fill="#5A5564"/>
<path d="M5.09865 18.2932C3.52808 16.574 2.65723 14.3296 2.65723 12.001C2.65723 9.67243 3.52808 7.42803 5.09865 5.70885L4.43967 5.04987C2.69096 6.94667 1.72009 9.43209 1.72009 12.012C1.72009 14.5919 2.69096 17.0773 4.43967 18.9741L5.09865 18.2932Z" fill="#5A5564"/>
<path d="M18.2983 18.9016C16.5788 20.474 14.333 21.346 12.0029 21.346C9.67277 21.346 7.427 20.474 5.70744 18.9016L5.04846 19.5606C6.94526 21.3093 9.43068 22.2802 12.0106 22.2802C14.5905 22.2802 17.0759 21.3093 18.9727 19.5606L18.2983 18.9016Z" fill="#5A5564"/>
<path d="M16.165 9.80113C16.0332 8.42606 14.8471 7.96478 13.3468 7.82419V5.93073H12.187V7.78905C11.8817 7.78905 11.5698 7.78905 11.26 7.78905V5.93073H10.109V7.83737H7.75647V9.07845C7.75647 9.07845 8.61314 9.06308 8.59996 9.07845C8.75443 9.06146 8.90946 9.10509 9.03238 9.20016C9.15531 9.29522 9.23653 9.43429 9.25894 9.58806V14.8072C9.25564 14.8614 9.2415 14.9144 9.21735 14.9631C9.19321 15.0118 9.15954 15.0551 9.11836 15.0905C9.07795 15.1267 9.03065 15.1542 8.97931 15.1716C8.92798 15.189 8.87366 15.1958 8.81962 15.1916C8.835 15.2048 7.97613 15.1916 7.97613 15.1916L7.75647 16.5776H10.0871V18.515H11.2469V16.6062H12.1738V18.5063H13.3358V16.5908C15.2952 16.4722 16.6615 15.989 16.8328 14.1548C16.9712 12.6787 16.2771 12.0197 15.1678 11.7539C15.8421 11.4222 16.2595 10.8072 16.165 9.80113ZM14.5396 13.9264C14.5396 15.3673 12.0706 15.2026 11.2842 15.2026V12.6457C12.0706 12.6479 14.5396 12.4217 14.5396 13.9264ZM14.0014 10.3239C14.0014 11.6419 11.941 11.4815 11.2864 11.4815V9.15753C11.941 9.15753 14.0014 8.95105 14.0014 10.3239Z" fill="#F09242"/>
<path d="M12.0027 23.9999C9.6295 23.9995 7.30973 23.2954 5.33668 21.9767C3.36362 20.6579 1.82589 18.7837 0.917914 16.5911C0.0099342 14.3985 -0.227521 11.9859 0.235572 9.65828C0.698665 7.33071 1.84151 5.19271 3.51961 3.51461C5.1977 1.83651 7.3357 0.693661 9.66327 0.230568C11.9908 -0.232526 14.4035 0.00492932 16.5961 0.912911C18.7887 1.82089 20.6629 3.35862 21.9816 5.33168C23.3004 7.30474 24.0045 9.62452 24.0049 11.9977C24.0052 13.5739 23.6949 15.1348 23.0919 16.5911C22.4888 18.0474 21.6047 19.3706 20.4902 20.4852C19.3756 21.5998 18.0524 22.4838 16.5961 23.0869C15.1398 23.69 13.5789 24.0002 12.0027 23.9999ZM12.0027 0.935635C9.81625 0.937372 7.67941 1.58726 5.86224 2.80316C4.04507 4.01905 2.62914 5.74637 1.79343 7.7668C0.957722 9.78722 0.73974 12.0101 1.16704 14.1543C1.59434 16.2986 2.64773 18.2681 4.19408 19.8138C5.74044 21.3596 7.71033 22.4122 9.85477 22.8386C11.9992 23.2651 14.222 23.0462 16.242 22.2097C18.2621 21.3732 19.9889 19.9566 21.2041 18.1389C22.4192 16.3213 23.0683 14.1842 23.0691 11.9977C23.0697 10.5445 22.7838 9.1054 22.2278 7.76274C21.6719 6.42008 20.8567 5.20018 19.8289 4.1728C18.8011 3.14542 17.5809 2.33071 16.238 1.77525C14.8951 1.21979 13.4559 0.93448 12.0027 0.935635Z" fill="#282138"/>
</g>
<defs>
<clipPath id="clip0_10046_62081">
<rect width="24" height="24.0001" rx="12" fill="white"/>
</clipPath>
</defs>
</svg>

<svg width="24" height="24" fill="none" xmlns="http://www.w3.org/2000/svg">
    <g clip-path="url(#a)">
        <rect width="24" height="24" rx="12" fill="#282138"/>
        <path d="m19.574 5.037-.659.659a9.329 9.329 0 0 1 0 12.59l.66.66a10.271 10.271 0 0 0 0-13.925v.016ZM5.716 5.094a9.329 9.329 0 0 1 12.59 0l.66-.66a10.271 10.271 0 0 0-13.924 0l.674.66ZM5.099 18.293a9.33 9.33 0 0 1 0-12.584l-.66-.66a10.271 10.271 0 0 0 0 13.925l.66-.68ZM18.298 18.902a9.329 9.329 0 0 1-12.59 0l-.66.659a10.271 10.271 0 0 0 13.925 0l-.675-.66Z" fill="#5A5564"/>
        <path d="M16.165 9.801c-.132-1.375-1.318-1.836-2.818-1.977V5.931h-1.16v1.858h-.927V5.931h-1.151v1.906H7.756v1.241s.857-.015.844 0a.6.6 0 0 1 .659.51v5.22a.406.406 0 0 1-.14.283.401.401 0 0 1-.3.1c.016.014-.843 0-.843 0l-.22 1.387h2.331v1.937h1.16v-1.909h.927v1.9h1.162v-1.915c1.96-.119 3.325-.602 3.497-2.436.138-1.476-.556-2.135-1.665-2.401.674-.332 1.091-.947.997-1.953Zm-1.625 4.125c0 1.441-2.47 1.277-3.256 1.277v-2.557c.787.002 3.256-.224 3.256 1.28ZM14 10.324c0 1.318-2.06 1.158-2.715 1.158V9.158c.655 0 2.715-.207 2.715 1.166Z" fill="#F09242"/>
        <path d="M12.003 24a12 12 0 1 1 .004-24 12 12 0 0 1-.004 24Zm0-23.064a11.058 11.058 0 1 0 .017 22.115A11.058 11.058 0 0 0 12.003.936Z" fill="#282138"/>
    </g>
    <defs>
        <clipPath id="a">
            <rect width="24" height="24" rx="12" fill="#fff"/>
        </clipPath>
    </defs>
</svg>
